X:0124
T:The Parson in his Boots.
M:6/8
L:1/8
Q:3/8=120
I: :: ::
Z:Jack Campin * www.campin.me.uk * 2009
K:E Dorian
(c/d/)|e2e e2e|efd cBc|ded fed|cAc e3 |
       e2e e2e|efd cBc|ded fga|gec d2:|
(f/g/)|a2f g2e|f2d cBc|ded fed|cAc efg|
       a2f g2e|f2d cAc|ded fga|gec d2:|
<end>
<start>
